icon_installer/data/icons/scalable/actions/show-terminal-symbolic.svg

<?xml version="1.0" encoding="UTF-8"?>
<svg height="16px" viewBox="0 0 16 16" width="16px" xmlns="http://www.w3.org/2000/svg">
    <g fill="#222222">
        <path d="m 2.199219 0 c -1.207031 0 -2.199219 1.007812 -2.199219 2.207031 v 10.585938 c 0 1.199219 0.992188 2.207031 2.199219 2.207031 h 11.601562 c 1.207031 0 2.199219 -1.007812 2.199219 -2.207031 v -10.585938 c 0 -1.199219 -0.992188 -2.207031 -2.199219 -2.207031 z m 0 2 h 11.601562 c 0.121094 0 0.199219 0.070312 0.199219 0.207031 v 10.585938 c 0 0.136719 -0.078125 0.207031 -0.199219 0.207031 h -11.601562 c -0.121094 0 -0.199219 -0.070312 -0.199219 -0.207031 v -10.585938 c 0 -0.136719 0.078125 -0.207031 0.199219 -0.207031 z m 0 0"/>
        <path d="m 4.515625 5.898438 c -0.164063 -0.003907 -0.324219 0.0625 -0.441406 0.175781 c -0.230469 0.234375 -0.230469 0.617187 0 0.851562 l 1.578125 1.574219 l -1.578125 1.574219 c -0.230469 0.234375 -0.230469 0.617187 0 0.851562 c 0.234375 0.230469 0.617187 0.230469 0.851562 0 l 2 -2 c 0.230469 -0.234375 0.230469 -0.617187 0 -0.851562 l -2 -2 c -0.109375 -0.105469 -0.257812 -0.167969 -0.410156 -0.175781 z m 3.484375 4.101562 v 1 h 3 v -1 z m 0 0"/>
    </g>
</svg>

<svg xmlns="http://www.w3.org/2000/svg" width="16" height="16"><g fill="#222"><path d="M2.2 0C.991 0 0 1.008 0 2.207v10.586C0 13.993.992 15 2.2 15h11.6c1.208 0 2.2-1.008 2.2-2.207V2.207C16 1.007 15.008 0 13.8 0zm0 2h11.6c.122 0 .2.07.2.207v10.586c0 .137-.078.207-.2.207H2.2c-.122 0-.2-.07-.2-.207V2.207C2 2.07 2.078 2 2.2 2zm0 0"/><path d="M4.516 5.898a.62.62 0 0 0-.442.176.61.61 0 0 0 0 .852L5.652 8.5l-1.578 1.574a.61.61 0 0 0 0 .852.61.61 0 0 0 .852 0l2-2a.61.61 0 0 0 0-.852l-2-2a.642.642 0 0 0-.41-.176zM8 10v1h3v-1zm0 0"/></g></svg>
